!!!!SEGMENT: pl-kk--kk-i-387--009_anonim--justorum-animae.krn
!!!id: 18xx:1423
!!!COM: Anonim
!!!COM-rism: pe30004985
!!!CDT:
!!!CNT:
!!!OTL: Justorum animae
!!!PDT:
!!!SMS-siglum: PL-Kk
!!!SMS-shelfmark: Kk.I.387
!!!NIFC-rismID: 1001139126
!!!URL-scan: http://repozytorium.nifc.pl/skany/pl-kk-nut--i-387
!!!ONB-nifc:
!!!SMS-variant:
!!!SMS-altvar:
**kern	**text	**dynam	**kern	**text	**dynam	**kern	**text	**kern	**text
*part4	*part4	*part4	*part3	*part3	*part3	*part2	*part2	*part1	*part1
*staff4	*staff4	*	*staff3	*staff3	*	*staff2	*staff2	*staff1	*staff1
*I"Basso.	*	*	*I"Tenore.	*	*	*I"Alto.	*	*I"Soprano.	*
*I'B	*	*	*I'T	*	*	*I'A	*	*I'S	*
*clefF4	*	*	*clefC4	*	*	*clefC3	*	*clefC1	*
*k[f#]	*	*	*k[f#]	*	*	*k[f#]	*	*k[f#]	*
*M2/4	*	*	*M2/4	*	*	*M2/4	*	*M2/4	*
=1	=1	=1	=1	=1	=1	=1	=1	=1	=1
*2\right	*	*	*2\right	*	*	*2\right	*	*2\right	*
!LO:TX:t=P:problem:all\right:global	!	!	!LO:TX:t=P:problem:all\right:global	!	!	!LO:TX:t=P:problem:all\right:global	!	!LO:TX:t=P:problem:all\right:global	!
!LO:TX:i:a:t=Offertorium.	!	!	!LO:TX:i:a:t=Offertorium.	!	!	!LO:TX:i:a:t=Offertorium	!	!	!
!LO:TX:i:a:t=No 9.	!	!	!LO:TX:i:a:t=No 9.	!	!	!LO:TX:i:a:t=No 9.	!	!LO:TX:i:a:t=No 9.	!
!LO:TX:a:t=P:problem: napis "Basso." nad pięciolinią	!	!	!LO:TX:a:t=P:problem: napis "Tenore." nad pięciolinią	!	!	!LO:TX:a:t=P:problem: napis "Alto." nad pięciolinią	!	!	!
!LO:TX:a:t=P:problem: napis "No 9." przed kluczem	!	!	!LO:TX:a:t=P:problem: napis "No 9." przed kluczem	!	!	!LO:TX:a:t=P:problem: napis "No 9." przed kluczem	!	!LO:TX:a:t=P:problem: napis "No 9." przed kluczem	!
!	!	!	!	!	!	!	!	!LO:TX:a:i:t=in G.	!
8G\	Ju-	.	8B\	Ju-	.	8d\	Ju-	4g\	Ju-
4G\	-sto-	.	4B\	-sto-	.	4d\	-sto-	.	.
.	.	.	.	.	.	.	.	8g\	-sto-
8G\	-rum	.	8B\	-rum	.	8d\	-rum	8g\	-rum
=2	=2	=2	=2	=2	=2	=2	=2	=2	=2
8.D\	A-	.	8.d\	A-	.	8.g\	A-	8.b\	A-
16D\	-ni-	.	16d\	-ni-	.	16f#\	-ni-	16a\	-ni-
8D\	-me	.	8d\	-me	.	8f#\	-me	8a\	-me,
16r	.	.	16r	.	.	16r	.	16r	.
16d\	in	.	16d\	in	.	16f#\	in	16a\	in
=3	=3	=3	=3	=3	=3	=3	=3	=3	=3
8c\	ma-	.	8d\	ma-	.	8f#\	ma-	8a\	ma-
8B\	-nu	.	8d\	-nu	.	8g\	-nu	8b\	-nu
8A\	De-	.	8d\	De-	.	8.f#\	De-	8.dd\	De-
8D\	-i	.	8d\	-i	.	.	.	.	.
.	.	.	.	.	.	16f#\	-i	16cc\	-i
=4	=4	=4	=4	=4	=4	=4	=4	=4	=4
4F#\	sunt,	.	4d\	sunt,	.	4a\	sunt,	(>4cc\	sunt,
8G\	.	.	4r	.	.	8g\	.	8b\)	.
8r	.	.	.	.	.	8r	.	8r	.
!LO:LB:g=original	!	!	!LO:LB:g=original	!	!	!	!	!	!
=5	=5	=5	=5	=5	=5	=5	=5	=5	=5
8A\	Ju-	.	8d#X\	Ju-	.	8f#\	-Ju-	8b\	Ju-
8A\L	-sto-	.	8d#\L	-sto-	.	8f#\L	-sto-	4b\	-sto-
8G\J	.	.	8e\J	.	.	8g\J	.	.	.
8D#X\	-rum	.	8f#\	-rum	.	8a\	-rum	8b\	-rum
!	!	!	!	!	!	!LO:LB:g=original	!	!LO:LB:g=original	!
=6	=6	=6	=6	=6	=6	=6	=6	=6	=6
8E\	A-	.	8B\	A-	.	8.g\	A-	8b\	A-
8F#\	-ni-	.	8B\	-ni-	.	.	.	8dd#X\	-ni-
.	.	.	.	.	.	16a\	-ni-	.	.
8G\	-me	.	8B\	-me	.	8.b\	-me	8.ee\	-me
8G#X\	in	.	8e\	in	.	.	.	.	.
.	.	.	.	.	.	16b\	in	16ddn\	in
=7	=7	=7	=7	=7	=7	=7	=7	=7	=7
8A\	ma-	.	8e\	ma-	.	8a\	ma-	8dd\	ma-
8A\	-nu	.	8e\	-nu	.	8a\	-nu	8cc#X\	-nu
8AA/	De-	.	8e\	De-	.	8g\	De-	8b\	De-
8AA/	-i	.	8e\	-i	.	8g\	-i	8cc#\	-i
=8	=8	=8	=8	=8	=8	=8	=8	=8	=8
4D\	sunt,	.	8d\	sunt,	.	4f#\	sunt,	4dd\	sunt,
.	.	.	8r	.	.	.	.	.	.
4r	.	.	8.A\	et	.	4r	.	4r	.
.	.	.	16A\	non	.	.	.	.	.
=9	=9	=9	=9	=9	=9	=9	=9	=9	=9
4.D\	et	.	4A\	tan-	.	4.f#\	et	4.a\	et
.	.	.	8A\	-get	.	.	.	.	.
8D\	non	.	8A\	non	.	8f#\	non	8dd\	non
!	!	!	!LO:LB:g=original	!	!	!	!	!	!
=10	=10	=10	=10	=10	=10	=10	=10	=10	=10
4E\	tan-	.	4A\	tan-	.	4g\	tan-	4dd\	tan-
8E\	-get	.	8A\	-get,	.	8g\	-get	8cc#X\	-get
8r	.	.	8r	.	.	8r	.	8r	.
!LO:LB:g=original	!	!	!	!	!	!	!	!	!
=11	=11	=11	=11	=11	=11	=11	=11	=11	=11
4E\	et	.	4.A\	et	.	(>4g\	et	4cc#X\	et
.	.	.	.	.	.	.	.	32qqdd/LLL	.
.	.	.	.	.	.	.	.	32qqcc#/	.
.	.	.	.	.	.	.	.	32qqb/	.
.	.	.	.	.	.	.	.	32qqcc#/JJJ	.
8F#\L	non	.	.	.	.	8a\L)	.	8dd\L	non
8G\J	.	.	8c#X\	non	.	8a\J	non	8ee\J	.
!	!	!	!	!	!	!LO:LB:g=original	!	!LO:LB:g=original	!
=12	=12	=12	=12	=12	=12	=12	=12	=12	=12
4G\	tan-	.	4c#X\	tan-	.	4a\	tan-	4ee\	tan-
8F#\	-get,	.	8d\	-get	.	8a\	-get	8dd\	-get
8r	.	.	8r	.	.	8r	.	8r	.
=13	=13	=13	=13	=13	=13	=13	=13	=13	=13
4F#\	il-	.	4d\	il-	.	4a\	il-	4ff#\	il-
8F#\	-los	.	8c#X\	-los	.	8a#X\	-los	8ff#\	-los
8F#\	tor-	.	8c#\	tor-	.	8a#\	tor-	8ff#\	tor-
=14	=14	=14	=14	=14	=14	=14	=14	=14	=14
4G\	-men-	.	4B\	-men-	.	4b\	-men-	8ff#\L	-men-
.	.	.	.	.	.	.	.	8ee\J	.
8G#X\	-tum	.	8e\	-tum	.	8b\	-tum	8ee\	-tum
8G#\	ma-	.	8fn\	ma-	.	8b\	ma-	8dd\	ma-
=15	=15	=15	=15	=15	=15	=15	=15	=15	=15
4A\	-li-	.	4f#X\	-li-	.	4a\	-li-	4.dd\	-li-
4AA/	-ti-	.	4e\	-ti-	.	4g\	-ti-	.	.
.	.	.	.	.	.	.	.	8cc#X\	-ti-
=16	=16	=16	=16	=16	=16	=16	=16	=16	=16
4D\	-e,	.	4d\	-e	.	8f#\	-e,	4dd\	-e,
.	.	.	.	.	.	4a\	et	.	.
4r	.	.	4r	.	.	.	.	4r	.
.	.	.	.	.	.	8a\	non	.	.
!LO:LB:g=original	!	!	!LO:LB:g=original	!	!	!	!	!	!
=17	=17	=17	=17	=17	=17	=17	=17	=17	=17
!LO:TX:a:t=P:problem:oznaczenie dynamiczne na pięciolinii przed nutą	!	!LO:DY:rj	!LO:TX:a:t=P:problem:oznaczenie dynamiczne na pięciolinii przed nutą	!	!LO:DY:rj	!	!	!	!
4.D\	et	f	4.A\	et	f	4f#\	tan-	4.ff#\	et
.	.	.	.	.	.	8f#\	-get	.	.
8D\	non	.	8A\	non	.	8f#\	non	16ee\LL	non
.	.	.	.	.	.	.	.	16dd\JJ	.
!	!	!	!	!	!	!LO:LB:g=original	!	!	!
=18	=18	=18	=18	=18	=18	=18	=18	=18	=18
4E\	tan-	.	4A\	tan-	.	4g\	tan-	4dd\	tan-
8E\	-get	.	8A\	-get	.	8g\	-get	8cc#X\	-get
8r	.	.	8r	.	.	8r	.	8r	.
!	!	!	!	!	!	!	!	!LO:LB:g=original	!
=19	=19	=19	=19	=19	=19	=19	=19	=19	=19
!	!	!	!LO:TX:a:t=P:problem:oznaczenie dynamiczne na pięciolinii przed nutą	!	!LO:DY:rj	!	!	!	!
4.E\	et	.	4.c#X\	et	f	4.a\	et	4.gg\	et
8G\	non	.	8c#\	non	.	8a\	non	16ff#\LL	non
.	.	.	.	.	.	.	.	16ee\JJ	.
=20	=20	=20	=20	=20	=20	=20	=20	=20	=20
4F#\	tan-	.	4cn\	tan-	.	4a\	tan-	4ee\	tan-
8F#\	-get	.	8c\	-get	.	8a\	-get	8dd#X\	-get
8r	.	.	8r	.	.	8r	.	8r	.
=21	=21	=21	=21	=21	=21	=21	=21	=21	=21
4D#X\	il-	.	4cn\	li-	.	4f#\	il-	4aa\	il-
8D#\	-los	.	8B\	-los	.	8f#\	-los	8aa\	-los
8D#\	tor-	.	8B\	tor-	.	8b\	tor-	8ff#\	tor-
=22	=22	=22	=22	=22	=22	=22	=22	=22	=22
4E\	-men-	.	4B\	-men-	.	4b\	-men-	8aa\L	-men-
.	.	.	.	.	.	.	.	8gg\J	.
8G\	-tum	.	8B\	-tum	.	8b\	-tum	8b\	-tum
8G\	ma-	.	8g\	ma-	.	8b\	ma-	8ee\	ma-
!LO:LB:g=original	!	!	!LO:LB:g=original	!	!	!	!	!	!
=23	=23	=23	=23	=23	=23	=23	=23	=23	=23
4A\	-li-	.	4f#\	-li-	.	4a\	-li-	8ee\	-li-
.	.	.	.	.	.	.	.	4dd\	.
4AA/	-ti-	.	4e\	-ti-	.	4g\	-ti-	.	.
.	.	.	.	.	.	.	.	8cc#X\	-ti-
=24	=24	=24	=24	=24	=24	=24	=24	=24	=24
4D\	-e,	.	4d\	-e	.	4f#\	-e,	4dd\	-e
8D\	vi-	.	4r	.	.	4r	.	4r	.
8D\	-si	.	.	.	.	.	.	.	.
!	!	!	!	!	!	!LO:LB:g=original	!	!	!
=25	=25	=25	=25	=25	=25	=25	=25	=25	=25
!	!	!	!LO:TX:a:t=P:problem:oznaczenie dynamiczne na pięciolinii przed nutą	!	!LO:DY:rj	!	!	!	!
4D\	vi-	.	4B\	vi-	f	4g#X\	vi-	4ffn\	vi-
8D\	-si	.	8B\	-si	.	8g#\	-si	8ff\	-si
8D\	sunt	.	8B\	sunt	.	8g#\	sunt	8ff\	sunt
!	!	!	!	!	!	!	!	!LO:LB:g=original	!
=26	=26	=26	=26	=26	=26	=26	=26	=26	=26
8.Cn/	o-	.	8.cn\	o-	.	8.a\	o-	8.ffn\	o-
16C/	-cu-	.	16A\	-cu-	.	16fn\	-cu-	16ccn\	-cu-
8C/	-lis,	.	8A\	-lis	.	8f\	-lis	8cc\	-lis
16r	.	.	16r	.	.	16r	.	16r	.
16C/	in-	.	16A\	in-	.	16f\	in-	16cc\	in-
=27	=27	=27	=27	=27	=27	=27	=27	=27	=27
8C/	-si-	.	8.G\	-si-	.	8.e\	-si-	8.cc\	-si-
8C/	-pi-	.	.	.	.	.	.	.	.
.	.	.	16G\	-pi-	.	16e\	-pi-	16cc\	-pi-
8E\	-en-	.	8G\	-en-	.	8g\	-en-	8dd\	-en-
16E\	-ti-	.	16c\	-ti-	.	16g\	-ti-	16cc\	-ti-
16E\	-um	.	16c\	-um	.	16g\	-um	16b-X\	-um
!LO:LB:g=original	!	!	!LO:LB:g=original	!	!	!	!	!	!
=28	=28	=28	=28	=28	=28	=28	=28	=28	=28
8Fn\	mo-	.	8c\	mo-	.	8g\	mo-	8b-X\	mo-
8F\	-ri,	.	8c\	-ri,	.	8fn\	-ri,	8a\	-ri
8F\	vi-	.	4r	.	.	4r	.	4r	.
8F\	-si	.	.	.	.	.	.	.	.
!	!	!	!	!	!	!LO:LB:g=original	!	!	!
=29	=29	=29	=29	=29	=29	=29	=29	=29	=29
4E\	vi-	.	4B-X\	vi-	.	4g\	vi-	4cc#X\	vi-
8E\	-si	.	8B-\	-si	.	8g\	-si	8cc#\	-si
8E\	sunt	.	8B-\	sunt	.	8g\	sunt	8cc#\	sunt
=30	=30	=30	=30	=30	=30	=30	=30	=30	=30
8.Fn\	o-	.	8.A\	o-	.	8.a\	o-	8.ee\	o-
16F\	-cu-	.	16d\	-cu-	.	16a\	-cu-	16dd\	-cu-
8F#X\	-lis,	.	8d\	-lis	.	8a\	-lis,	8dd\	-lis
8F#\	in-	.	8d\	in-	.	8a\	in-	8ccn\	in-
!	!	!	!	!	!	!	!	!LO:LB:g=original	!
=31	=31	=31	=31	=31	=31	=31	=31	=31	=31
8G\	-si-	.	8d\	-si-	.	8g\	-si-	8cc\	-si-
8G\	-pi-	.	8d\	-pi-	.	8g\	-pi-	8b-X\	-pi-
8E-X\	-en-	.	8c#X\	-en-	.	8g\	-en-	8b-\	-en-
16E-\	-ti-	.	16G/	-ti-	.	16c#X\	-ti-	16a\	-ti-
16E-\	-um	.	16G/	-um	.	16c#\	-um	16g\	-um
!LO:LB:g=original	!	!	!LO:LB:g=original	!	!	!	!	!	!
=32	=32	=32	=32	=32	=32	=32	=32	=32	=32
4D\	mo-	.	4G/	mo-	.	4d\	mo-	4b-X\	mo-
8D\	-ri,	.	8F#X/	-ri,	.	8d\	-ri	8a\	-ri
8r	.	.	8r	.	.	8r	.	8r	.
=33	=33	=33	=33	=33	=33	=33	=33	=33	=33
4BBn/	il-	.	4G/	il-	.	4.d\	il-	(>4g\	il-
8AA/L	.	.	8F#/L	.	.	.	.	8a\)	.
8GG/J	-li	.	8G/J	-li	.	8d\	-li	8bn\	-li
!	!	!	!	!	!	!LO:LB:g=original	!	!	!
=34	=34	=34	=34	=34	=34	=34	=34	=34	=34
8.C/	au-	.	8.G/	au-	.	8.e\	au-	8.b\	au-
16C/	-tem	.	16G/	-tem	.	16e\	-tem	16a\	-tem
8C/	sunt	.	8G/	sunt,	.	8e\	sunt,	8a\	sunt
8r	.	.	8r	.	.	8r	.	8r	.
=35	=35	=35	=35	=35	=35	=35	=35	=35	=35
4C/	il-	.	4.G/	il-	.	4.e\	il-	4a\	il-
.	.	.	.	.	.	.	.	32qqb/LLL	.
.	.	.	.	.	.	.	.	32qqa/	.
.	.	.	.	.	.	.	.	32qqg/	.
.	.	.	.	.	.	.	.	32qqa/JJJ	.
8BB/L	-li	.	.	.	.	.	.	8b\L	-li
8AA/J	.	.	8G/	-li	.	8e\	-li	8cc\J	.
=36	=36	=36	=36	=36	=36	=36	=36	=36	=36
8.D\	au-	.	8.G/	au-	.	8.fn\	au-	8.cc\	au-
16D\	-tem	.	16G/	-tem	.	16f\	-tem	16b\	-tem
8D\	sunt	.	4G/	sunt,	.	8f\	sunt	8b\	sunt
8r	.	.	.	.	.	8r	.	8r	.
!LO:LB:g=original	!	!	!LO:LB:g=original	!	!	!	!	!LO:LB:g=original	!
=37	=37	=37	=37	=37	=37	=37	=37	=37	=37
8.D\	il-	.	8.G/	il-	.	8.fn\	il-	8.b\	il-
16D\	-li	.	16G/	-li	.	16f\	-li	16b\	-li
8C/	au-	.	8G/	au-	.	8e\	au-	8cc\	au-
8BB/	-tem	.	8G/	-tem	.	8f\	-tem	8dd\	-tem
=38	=38	=38	=38	=38	=38	=38	=38	=38	=38
4C/	sunt	.	4.G/	sunt	.	4.e\	sunt	4.ee\	sunt
4C#X/	in	.	.	.	.	.	.	.	.
.	.	.	8G/	in	.	8e\	in	8a\	in
=39	=39	=39	=39	=39	=39	=39	=39	=39	=39
2D\	pa-	.	8F#X/L	pa-	.	4d\	pa-	8a\L	pa-
.	.	.	8G/J	.	.	.	.	8b\	.
.	.	.	4A/	.	.	4f#X\	.	8dd\	.
.	.	.	.	.	.	.	.	8cc\J	.
!	!	!	!	!	!	!LO:LB:g=original	!	!	!
=40	=40	=40	=40	=40	=40	=40	=40	=40	=40
8G\	-ce	.	8G/	-ce,	.	8g\	-ce	8b\	-ce,
8r	.	.	8r	.	.	8dd\	in	8r	.
4r	.	.	4r	.	.	8cc\	pa-	4r	.
.	.	.	.	.	.	8a\	-ce	.	.
=41	=41	=41	=41	=41	=41	=41	=41	=41	=41
4G\	il-	.	4.d\	il-	.	(>4g\	il-	4.b\	il-
8G#X\L	-li	.	.	.	.	8fn\)	.	.	.
8G#\J	.	.	8d\	-li	.	8f\	-li	8b\	-li
=42	=42	=42	=42	=42	=42	=42	=42	=42	=42
8.A\	au-	.	8.d\	au-	.	8.f#X\	au-	8.dd\	au-
16A\	-tem	.	16d\	-tem	.	16f#\	-tem	16cc\	-tem
8A\	sunt	.	8d\	sunt	.	8f#\	sunt	8cc\	sunt
8r	.	.	8r	.	.	8r	.	8r	.
!LO:LB:g=original	!	!	!LO:LB:g=original	!	!	!	!	!LO:LB:g=original	!
=43	=43	=43	=43	=43	=43	=43	=43	=43	=43
4.A#X\	il-	.	4.e\	il-	.	4.g\	il-	4.cc#X\	il-
8A#\	-li	.	8e\	-li	.	8g\	-li	8cc#\	-li
=44	=44	=44	=44	=44	=44	=44	=44	=44	=44
8.A#X\	au-	.	8.c#X\	au-	.	8.g\	au-	8.ee\	au-
16B\	-tem	.	16d\	-tem	.	16g\	-tem	16dd\	-tem
8B\	sunt	.	8B\	sunt	.	8g\	sunt	8dd\	sunt
8r	.	.	8r	.	.	8r	.	8r	.
!	!	!	!	!	!	!LO:LB:g=original	!	!	!
=45	=45	=45	=45	=45	=45	=45	=45	=45	=45
8.B\	il-	.	8.f#X\	il-	.	8.a\	il-	8.dd#X\	il-
16B\	-li	.	16f#\	-li	.	16a\	-li	16dd#\	-li
8B\	au-	.	8f#\	au-	.	8a\	au-	8dd#\	au-
8B\	-tem	.	8f#\	-tem	.	8a\	-tem	8dd#\	-tem
=46	=46	=46	=46	=46	=46	=46	=46	=46	=46
4c\	sunt	.	4.e\	sunt	.	4g\	sunt	8ee\	sunt
.	.	.	.	.	.	.	.	4gg\	.
4c#X\	in	.	.	.	.	4a\	in	.	.
.	.	.	8g\	in	.	.	.	16ff#\LL	in
.	.	.	.	.	.	.	.	16ee\JJ	.
=47	=47	=47	=47	=47	=47	=47	=47	=47	=47
4d\	pa-	.	4g\	pa-	.	4b\	pa-	8dd\L	pa-
.	.	.	.	.	.	.	.	8b\	.
.	.	.	.	.	.	.	.	8qdd/	.
4D\	.	.	8f#\L	.	.	8a\L	.	8.cc\	.
.	.	.	8c\J	.	.	8f#\J	.	.	.
.	.	.	.	.	.	.	.	16a\Jk	.
!LO:LB:g=original	!	!	!	!	!	!	!	!LO:LB:g=original	!
=48	=48	=48	=48	=48	=48	=48	=48	=48	=48
8G\	-ce,	.	8B\	-ce,	.	8g\	-ce	8g\	-ce
!	!	!	!LO:LB:g=original	!	!	!	!	!	!
8r	.	.	8d\L	sunt	.	8r	.	8r	.
4G\	in	.	8B\J	.	.	8r	.	8r	.
.	.	.	8G/	in	.	8g\	in	8b\	in
=49	=49	=49	=49	=49	=49	=49	=49	=49	=49
2D\	pa-	.	2A\	pa-	.	8g\L	pa-	4.cc\	pa-
.	.	.	.	.	.	8f#\	.	.	.
.	.	.	.	.	.	8e\	.	.	.
.	.	.	.	.	.	8f#\J	.	8dd\	.
=50	=50	=50	=50	=50	=50	=50	=50	=50	=50
8G\	-ce	.	8G/	-ce	.	8g\	-ce	4b\	-ce
8D/L	pa-	.	8r	.	.	8r	.	.	.
!	!	!	!	!	!	!LO:LB:g=original	!	!	!
8BB/J	.	.	8r	.	.	8r	.	8r	.
8GG/	-ce	.	8G/	in	.	8d\	in	8b\	in
=51	=51	=51	=51	=51	=51	=51	=51	=51	=51
2D\	pa-	.	8G/L	pa-	.	2c\	pa-	2a\	pa-
.	.	.	8F#/	.	.	.	.	.	.
.	.	.	8E/	.	.	.	.	.	.
.	.	.	8F#/J	.	.	.	.	.	.
=52	=52	=52	=52	=52	=52	=52	=52	=52	=52
8GG/	-ce	.	8G/	-ce,	.	8B/	-ce	4g\	-ce
4GG/	pa-	.	8D/L	sunt	.	4B/	pa-	.	.
.	.	.	8G/J	.	.	.	.	8r	.
8G\	-ce	.	8B\	in	.	8d\	-ce	16d/	il-
.	.	.	.	.	.	.	.	16g/	-li
=53	=53	=53	=53	=53	=53	=53	=53	=53	=53
2D\	pa-	.	2A/	pa-	.	2c\	pa-	8g/	au-
.	.	.	.	.	.	.	.	8f#/	-tem
.	.	.	.	.	.	.	.	8e/	sunt
.	.	.	.	.	.	.	.	8f#/	n
!	!	!	!	!	!	!	!	!LO:LB:g=original	!
=54	=54	=54	=54	=54	=54	=54	=54	=54	=54
4GG/	-ce	.	4G/	-ce	.	4B/	-ce	4g\	pa-
!	!	!	!LO:LB:g=original	!	!	!	!	!	!
8r	.	.	8r	.	.	8r	.	8g\	-ce
8C/	in	.	8c\	in	.	8e\	in	8g\	in
!LO:LB:g=original	!	!	!	!	!	!	!	!	!
=55	=55	=55	=55	=55	=55	=55	=55	=55	=55
4GG/	pa-	.	4B\	pa-	.	4d\	pa-	2g\	pa-
4C/	.	.	4c\	.	.	4e\	.	.	.
=56	=56	=56	=56	=56	=56	=56	=56	=56	=56
2GG;>/	-ce.	.	2B;>\	-ce.	.	2d;>\	-ce.	2g\	-ce.
==	==	==	==	==	==	==	==	==	==
*-	*-	*-	*-	*-	*-	*-	*-	*-	*-
!!!system-decoration: [(s1,s2,s3,s4)]
!!!RDF**kern: > = above
!!!RDF**kern: < = below
!!!EED: Mateusz Mrugas
!!!EST: 2021-01-17
!!!ENC:Krzysztof Stępień
!!!END:2021-01-12
